styles/2/Numix/48/places/red-user-home.svg

<?xml version="1.0" encoding="UTF-8" standalone="no"?>
<svg
   xmlns:dc="http://purl.org/dc/elements/1.1/"
   xmlns:cc="http://creativecommons.org/ns#"
   xmlns:rdf="http://www.w3.org/1999/02/22-rdf-syntax-ns#"
   xmlns:svg="http://www.w3.org/2000/svg"
   xmlns="http://www.w3.org/2000/svg"
   xmlns:sodipodi="http://sodipodi.sourceforge.net/DTD/sodipodi-0.dtd"
   xmlns:inkscape="http://www.inkscape.org/namespaces/inkscape"
   width="48"
   viewBox="0 0 48 48"
   height="48"
   id="svg2999"
   version="1.1"
   inkscape:version="0.91 r"
   sodipodi:docname="red-user-home.svg">
  <metadata
     id="metadata3017">
    <rdf:RDF>
      <cc:Work
         rdf:about="">
        <dc:format>image/svg+xml</dc:format>
        <dc:type
           rdf:resource="http://purl.org/dc/dcmitype/StillImage" />
      </cc:Work>
    </rdf:RDF>
  </metadata>
  <defs
     id="defs3015" />
  <sodipodi:namedview
     pagecolor="#ffffff"
     bordercolor="#666666"
     borderopacity="1"
     objecttolerance="10"
     gridtolerance="10"
     guidetolerance="10"
     inkscape:pageopacity="0"
     inkscape:pageshadow="2"
     inkscape:window-width="1366"
     inkscape:window-height="747"
     id="namedview3013"
     showgrid="true"
     inkscape:zoom="4.9166667"
     inkscape:cx="-0.049857879"
     inkscape:cy="18.81838"
     inkscape:window-x="0"
     inkscape:window-y="21"
     inkscape:window-maximized="1"
     inkscape:current-layer="svg2999">
    <inkscape:grid
       type="xygrid"
       id="grid2997" />
  </sodipodi:namedview>
  <path
     style="font-size:medium;font-style:normal;font-variant:normal;font-weight:normal;font-stretch:normal;text-indent:0;text-align:start;text-decoration:none;line-height:normal;letter-spacing:normal;word-spacing:normal;text-transform:none;direction:ltr;block-progression:tb;writing-mode:lr-tb;text-anchor:start;baseline-shift:baseline;color:#000000;fill:#ef5350;fill-opacity:1;fill-rule:nonzero;stroke:none;stroke-width:1;marker:none;visibility:visible;display:inline;overflow:visible;enable-background:accumulate;font-family:Sans;-inkscape-font-specification:Sans"
     d="m 6.000023,6.0000005 c -1,0 -2,0.9999995 -2,1.9999995 l 0,2 -1,0 c -1,0 -2.00556897,0.949207 -2,2 l 0,28 c 1.28e-4,1.120734 1.037763,1.9999 2.1875,2 l 41.625,0 c 1.1875,0 2.1875,-1 2.1875,-2 l 0,-25 c 0,-1 -1,-2 -2,-2 l -2,0 0,-5 c 0,-1 -1,-1.9999995 -2,-1.9999995 z"
     id="path3770"
     inkscape:connector-curvature="0"
     sodipodi:nodetypes="sscsccccccccsss" />
  <path
     inkscape:connector-curvature="0"
     style="font-size:medium;font-style:normal;font-variant:normal;font-weight:normal;font-stretch:normal;text-indent:0;text-align:start;text-decoration:none;line-height:normal;letter-spacing:normal;word-spacing:normal;text-transform:none;direction:ltr;block-progression:tb;writing-mode:lr-tb;text-anchor:start;baseline-shift:baseline;color:#000000;fill:#000000;fill-opacity:0.32156863;fill-rule:nonzero;stroke:none;stroke-width:1;marker:none;visibility:visible;display:inline;overflow:visible;enable-background:accumulate;font-family:Sans;-inkscape-font-specification:Sans"
     d="m 6.000023,6.0000005 c -1,0 -2,0.9999995 -2,1.9999995 l 0,2 -1,0 c -1,0 -2.00556897,0.949207 -2,2 l 0,28 c 1.28e-4,1.120734 1.037763,1.9999 2.1875,2 l 41.625,0 c 1.1875,0 2.1875,-1 2.1875,-2 l 0,-25 c 0,-1 -1,-2 -2,-2 l -2,0 0,-5 c 0,-1 -1,-1.9999995 -2,-1.9999995 l -35,0 z m -3,4.9999995 24,0 c 0.507314,0 1,0.494167 1,1 l 0,2 17,0 c 0.540858,0 1,0.471809 1,1 l 0,25 c 0,0.553755 -0.452115,1 -1,1 l -42,0 c -0.512726,0 -1,-0.446246 -1,-1 l 0,-28 c 0,-0.543318 0.479042,-1 1,-1 z"
     id="path3779" />
  <path
     style="fill:#000000;fill-opacity:0.32156864"
     d="M 24 20.25 C 23.75 20.25 23.5 20.5 23 21 L 18 26 C 15.79661 28 15 28 18 28 L 18 34 C 18 35.108 18.892 36 20 36 L 22 36 L 22 30 L 26 30 L 26 36 L 28 36 C 29.108 36 30 35.108 30 34 L 30 28 C 33 28 32.288136 28 30 26 L 30 22 C 30 21.446 30 21 29 21 C 28 21 28 21.446 28 22 L 28 24 L 25 21 C 24.5 20.5 24.25 20.25 24 20.25 z "
     id="rect2989" />
</svg>

<svg xmlns="http://www.w3.org/2000/svg" viewBox="0 0 48 48">
 <path d="m 6 6 c -1 0 -2 1 -2 2 l 0 2 -1 0 c -1 0 -2.01 0.949 -2 2 l 0 28 c 0 1.121 1.038 2 2.188 2 l 41.625 0 c 1.188 0 2.188 -1 2.188 -2 l 0 -25 c 0 -1 -1 -2 -2 -2 l -2 0 0 -5 c 0 -1 -1 -2 -2 -2 z" style="visibility:visible;fill:#ef5350;fill-opacity:1;stroke:none;display:inline;color:#000;fill-rule:nonzero"/>
 <path d="m 6 6 c -1 0 -2 1 -2 2 l 0 2 -1 0 c -1 0 -2.01 0.949 -2 2 l 0 28 c 0 1.121 1.038 2 2.188 2 l 41.625 0 c 1.188 0 2.188 -1 2.188 -2 l 0 -25 c 0 -1 -1 -2 -2 -2 l -2 0 0 -5 c 0 -1 -1 -2 -2 -2 l -35 0 z m -3 5 24 0 c 0.507 0 1 0.494 1 1 l 0 2 17 0 c 0.541 0 1 0.472 1 1 l 0 25 c 0 0.554 -0.452 1 -1 1 l -42 0 c -0.513 0 -1 -0.446 -1 -1 l 0 -28 c 0 -0.543 0.479 -1 1 -1 z" style="visibility:visible;fill:#000;fill-opacity:0.322;stroke:none;display:inline;color:#000;fill-rule:nonzero"/>
 <path d="m 24 20.25 c -0.25 0 -0.5 0.25 -1 0.75 l -5 5 c -2.203 2 -3 2 0 2 l 0 6 c 0 1.108 0.892 2 2 2 l 2 0 l 0 -6 l 4 0 l 0 6 l 2 0 c 1.108 0 2 -0.892 2 -2 l 0 -6 c 3 0 2.288 0 0 -2 l 0 -4 c 0 -0.554 0 -1 -1 -1 c -1 0 -1 0.446 -1 1 l 0 2 l -3 -3 c -0.5 -0.5 -0.75 -0.75 -1 -0.75 z" style="fill:#000;fill-opacity:0.322"/>
</svg>
